X: 32972
T: Pretty Girl Milking Her Cow, The
R: waltz
M: 3/4
K: Adorian
AB|cz e3d|Bzd3B|AGHE4|z2z2AB|cze3d|Bzd3B|HA6|zzAB|
cze3d|Bzd3B|AGHE4|z2z2AB|cBAGED|E2A2((3^GAB)|HA6|zz:|
|:AB|c2d2e2|eza2((3^gab)|azA4|z2z2AB|c2d2e2|eza2((3^gab)|Ha6|z2z2ab|
c'2b2a2|(ge3)d2|cA3dc|AGE4|z2z2AB|cBAGED|E2A2((3^GAB)|HA6|z2z2:|

